brand-assets/rolldown/rolldown-logo-mono-dark.svg

<svg width="552" height="47" viewBox="0 0 552 47" fill="none" xmlns="http://www.w3.org/2000/svg">
<path d="M84.875 0C103.939 0.000125532 113.956 8.0139 113.956 23.3945C113.956 38.7751 103.939 46.7889 84.875 46.7891C65.8106 46.7891 55.8584 38.7753 55.8584 23.3945C55.8584 8.01378 65.8106 0 84.875 0ZM304.339 0C323.403 4.87003e-06 333.42 8.01378 333.42 23.3945C333.42 38.7752 323.403 46.7891 304.339 46.7891C285.275 46.7891 275.322 38.7753 275.322 23.3945C275.322 8.01378 285.274 0 304.339 0ZM35.3496 0.775391C45.6896 0.775391 51.5713 6.13994 51.5713 15.5752C51.5712 21.0034 48.9861 25.0105 44.9795 27.3369L51.7646 46.0127H35.2852L30.5674 31.3438H15.5098V46.0127H0V0.775391H35.3496ZM135.411 34.7041H162.488V46.0127H119.9V0.775391H135.411V34.7041ZM183.791 34.7041H210.869V46.0127H168.281V0.775391H183.791V34.7041ZM245.53 0.775391C261.234 0.775531 270.217 7.88468 270.217 23.3945C270.217 38.9044 261.169 46.0127 245.465 46.0127H217.095V0.775391H245.53ZM356.661 31.8604L363.253 8.85352H380.637L387.616 32.7646L393.109 0.775391H408.232L398.926 46.0127H379.345L371.849 20.4219L364.546 46.0127H344.899L335.594 0.775391H350.975L356.661 31.8604ZM432.876 0.775391L451.553 30.1797H451.682V0.775391H466.417V46.0127H447.805L428.999 16.4795H428.805V46.0127H414.135V0.775391H432.876ZM84.875 11.1162C75.8921 11.1162 71.6914 14.9933 71.6914 23.3945C71.6914 31.7957 75.8921 35.6084 84.875 35.6084C93.8576 35.6083 98.0576 31.8602 98.0576 23.3945C98.0576 14.9288 93.8576 11.1163 84.875 11.1162ZM304.339 11.1162C295.356 11.1162 291.155 14.9933 291.155 23.3945C291.155 31.7957 295.356 35.6084 304.339 35.6084C313.322 35.6084 317.522 31.8604 317.522 23.3945C317.522 14.9287 313.322 11.1162 304.339 11.1162ZM232.604 35.0273H243.333C250.7 35.0272 254.318 31.8601 254.318 23.3945C254.318 14.9288 250.7 11.7619 243.333 11.7617H232.604V35.0273ZM15.5098 20.6797H30.9551C34.1216 20.6797 35.6728 19 35.6729 16.0273C35.6729 13.0546 34.1217 11.4385 30.9551 11.4385H15.5098V20.6797Z" fill="#08060E"/>
<path d="M530.998 0.773193C531.957 0.773193 532.48 1.89121 531.866 2.62793L521.423 15.1609C520.195 16.6343 521.242 18.8725 523.161 18.8725H533.262C534.221 18.8725 534.744 19.9905 534.13 20.7272L513.922 44.9789C513.47 45.5217 512.636 45.5217 512.184 44.9789L491.975 20.7272C491.361 19.9905 491.885 18.8725 492.844 18.8725H502.942C504.859 18.8725 505.909 16.6343 504.681 15.1609L494.237 2.62793C493.623 1.89121 494.147 0.773193 495.105 0.773193H530.998Z" fill="#08060E"/>
<mask id="mask0_4031_15620" style="mask-type:alpha" maskUnits="userSpaceOnUse" x="491" y="0" width="44" height="46">
<path d="M530.998 0.773193C531.957 0.773193 532.48 1.89121 531.866 2.62793L521.423 15.1609C520.195 16.6343 521.242 18.8725 523.161 18.8725H533.262C534.221 18.8725 534.744 19.9905 534.13 20.7272L513.922 44.9789C513.47 45.5217 512.636 45.5217 512.184 44.9789L491.975 20.7272C491.361 19.9905 491.885 18.8725 492.844 18.8725H502.942C504.859 18.8725 505.909 16.6343 504.681 15.1609L494.237 2.62793C493.623 1.89121 494.147 0.773193 495.105 0.773193H530.998Z" fill="black"/>
</mask>
<g mask="url(#mask0_4031_15620)">
<g filter="url(#filter0_f_4031_15620)">
<ellipse cx="5.39674" cy="23.5823" rx="5.39674" ry="23.5823" transform="matrix(-0.863806 -0.503824 -0.503824 0.863806 551.344 -16.7212)" fill="#08060E"/>
</g>
<g filter="url(#filter1_f_4031_15620)">
<ellipse cx="5.39674" cy="23.5823" rx="5.39674" ry="23.5823" transform="matrix(-0.863806 -0.503824 -0.503824 0.863806 550.196 6.25586)" fill="#08060E"/>
</g>
<g filter="url(#filter2_f_4031_15620)">
<ellipse cx="492.383" cy="1.44654" rx="3.71946" ry="21.8307" transform="rotate(-36.0929 492.383 1.44654)" fill="#08060E"/>
</g>
<g filter="url(#filter3_f_4031_15620)">
<ellipse cx="498.127" cy="34.1045" rx="3.71946" ry="21.8307" transform="rotate(-36.0929 498.127 34.1045)" fill="#08060E"/>
</g>
<g filter="url(#filter4_f_4031_15620)">
<ellipse cx="3.71946" cy="21.8307" rx="3.71946" ry="21.8307" transform="matrix(-0.808063 -0.589096 -0.589096 0.808063 549.61 -14.0029)" fill="#08060E"/>
</g>
<g filter="url(#filter5_f_4031_15620)">
<ellipse cx="3.71946" cy="21.8307" rx="3.71946" ry="21.8307" transform="matrix(-0.808063 -0.589096 -0.589096 0.808063 542.716 18.655)" fill="#08060E"/>
</g>
<g filter="url(#filter6_f_4031_15620)">
<ellipse cx="3.71946" cy="21.8307" rx="3.71946" ry="21.8307" transform="matrix(-0.808063 -0.589096 -0.589096 0.808063 546.163 -14.0029)" fill="#08060E"/>
</g>
<g filter="url(#filter7_f_4031_15620)">
<ellipse cx="3.71946" cy="21.8307" rx="3.71946" ry="21.8307" transform="matrix(-0.808063 -0.589096 -0.589096 0.808063 540.419 18.655)" fill="#08060E"/>
</g>
<g filter="url(#filter8_f_4031_15620)">
<ellipse cx="494.507" cy="3.02605" rx="5.39674" ry="23.5823" transform="rotate(-40.9103 494.507 3.02605)" fill="#08060E"/>
</g>
<g filter="url(#filter9_f_4031_15620)">
<ellipse cx="498.179" cy="28.5029" rx="5.39674" ry="23.5823" transform="rotate(-35.8882 498.179 28.5029)" fill="#08060E"/>
</g>
</g>
<path d="M481.842 0.00219727C472.643 13.1685 472.59 33.577 481.842 46.7907H488.057C478.807 33.577 478.86 13.1685 488.057 0.00219727H481.842Z" fill="#08060E"/>
<path d="M544.263 0.00219727H538.048C547.247 13.1685 547.3 33.577 538.048 46.7907H544.263C553.513 33.577 553.459 13.1685 544.263 0.00219727Z" fill="#08060E"/>
<defs>
<filter id="filter0_f_4031_15620" x="515.141" y="-26.5166" width="39.3199" height="54.8938" filterUnits="userSpaceOnUse" color-interpolation-filters="sRGB">
<feFlood flood-opacity="0" result="BackgroundImageFix"/>
<feBlend mode="normal" in="SourceGraphic" in2="BackgroundImageFix" result="shape"/>
<feGaussianBlur stdDeviation="3.44667" result="effect1_foregroundBlur_4031_15620"/>
</filter>
<filter id="filter1_f_4031_15620" x="513.993" y="-3.53958" width="39.3199" height="54.8938" filterUnits="userSpaceOnUse" color-interpolation-filters="sRGB">
<feFlood flood-opacity="0" result="BackgroundImageFix"/>
<feBlend mode="normal" in="SourceGraphic" in2="BackgroundImageFix" result="shape"/>
<feGaussianBlur stdDeviation="3.44667" result="effect1_foregroundBlur_4031_15620"/>
</filter>
<filter id="filter2_f_4031_15620" x="472.28" y="-23.2249" width="40.2061" height="49.3428" filterUnits="userSpaceOnUse" color-interpolation-filters="sRGB">
<feFlood flood-opacity="0" result="BackgroundImageFix"/>
<feBlend mode="normal" in="SourceGraphic" in2="BackgroundImageFix" result="shape"/>
<feGaussianBlur stdDeviation="3.44667" result="effect1_foregroundBlur_4031_15620"/>
</filter>
<filter id="filter3_f_4031_15620" x="478.024" y="9.43308" width="40.2061" height="49.3428" filterUnits="userSpaceOnUse" color-interpolation-filters="sRGB">
<feFlood flood-opacity="0" result="BackgroundImageFix"/>
<feBlend mode="normal" in="SourceGraphic" in2="BackgroundImageFix" result="shape"/>
<feGaussianBlur stdDeviation="3.44667" result="effect1_foregroundBlur_4031_15620"/>
</filter>
<filter id="filter4_f_4031_15620" x="513.641" y="-23.2249" width="40.2061" height="49.3428" filterUnits="userSpaceOnUse" color-interpolation-filters="sRGB">
<feFlood flood-opacity="0" result="BackgroundImageFix"/>
<feBlend mode="normal" in="SourceGraphic" in2="BackgroundImageFix" result="shape"/>
<feGaussianBlur stdDeviation="3.44667" result="effect1_foregroundBlur_4031_15620"/>
</filter>
<filter id="filter5_f_4031_15620" x="506.747" y="9.43308" width="40.2061" height="49.3428" filterUnits="userSpaceOnUse" color-interpolation-filters="sRGB">
<feFlood flood-opacity="0" result="BackgroundImageFix"/>
<feBlend mode="normal" in="SourceGraphic" in2="BackgroundImageFix" result="shape"/>
<feGaussianBlur stdDeviation="3.44667" result="effect1_foregroundBlur_4031_15620"/>
</filter>
<filter id="filter6_f_4031_15620" x="510.194" y="-23.2249" width="40.2061" height="49.3428" filterUnits="userSpaceOnUse" color-interpolation-filters="sRGB">
<feFlood flood-opacity="0" result="BackgroundImageFix"/>
<feBlend mode="normal" in="SourceGraphic" in2="BackgroundImageFix" result="shape"/>
<feGaussianBlur stdDeviation="3.44667" result="effect1_foregroundBlur_4031_15620"/>
</filter>
<filter id="filter7_f_4031_15620" x="504.45" y="9.43308" width="40.2061" height="49.3428" filterUnits="userSpaceOnUse" color-interpolation-filters="sRGB">
<feFlood flood-opacity="0" result="BackgroundImageFix"/>
<feBlend mode="normal" in="SourceGraphic" in2="BackgroundImageFix" result="shape"/>
<feGaussianBlur stdDeviation="3.44667" result="effect1_foregroundBlur_4031_15620"/>
</filter>
<filter id="filter8_f_4031_15620" x="471.636" y="-22.0398" width="45.7408" height="50.1316" filterUnits="userSpaceOnUse" color-interpolation-filters="sRGB">
<feFlood flood-opacity="0" result="BackgroundImageFix"/>
<feBlend mode="normal" in="SourceGraphic" in2="BackgroundImageFix" result="shape"/>
<feGaussianBlur stdDeviation="3.44667" result="effect1_foregroundBlur_4031_15620"/>
</filter>
<filter id="filter9_f_4031_15620" x="476.782" y="2.24094" width="42.7925" height="52.524" filterUnits="userSpaceOnUse" color-interpolation-filters="sRGB">
<feFlood flood-opacity="0" result="BackgroundImageFix"/>
<feBlend mode="normal" in="SourceGraphic" in2="BackgroundImageFix" result="shape"/>
<feGaussianBlur stdDeviation="3.44667" result="effect1_foregroundBlur_4031_15620"/>
</filter>
</defs>
</svg>

<svg xmlns="http://www.w3.org/2000/svg" width="552" height="47" fill="none" viewBox="0 0 552 47"><path fill="#08060e" d="M84.875 0c19.064 0 29.081 8.014 29.081 23.395s-10.017 23.394-29.081 23.394-29.017-8.014-29.017-23.394C55.858 8.014 65.811 0 84.875 0m219.464 0c19.064 0 29.081 8.014 29.081 23.395s-10.017 23.394-29.081 23.394-29.017-8.014-29.017-23.394C275.322 8.014 285.274 0 304.339 0M35.349.775c10.34 0 16.222 5.365 16.222 14.8 0 5.428-2.585 9.436-6.591 11.762l6.785 18.676h-16.48l-4.718-14.67H15.51v14.67H0V.775zm100.062 33.93h27.077v11.308H119.9V.775h15.511zm48.38 0h27.078v11.308h-42.588V.775h15.51zM245.53.774c15.704 0 24.687 7.11 24.687 22.62s-9.048 22.618-24.752 22.618h-28.37V.775zM356.661 31.86l6.592-23.006h17.384l6.979 23.91L393.109.776h15.123l-9.306 45.238h-19.581l-7.496-25.591-7.303 25.59h-19.647L335.594.776h15.381zM432.876.775l18.677 29.405h.129V.775h14.735v45.238h-18.612L428.999 16.48h-.194v29.533h-14.67V.775zM84.875 11.116c-8.983 0-13.184 3.877-13.184 12.279 0 8.4 4.201 12.213 13.184 12.213s13.183-3.748 13.183-12.213-4.2-12.279-13.183-12.279m219.464 0c-8.983 0-13.184 3.877-13.184 12.279 0 8.4 4.201 12.213 13.184 12.213s13.183-3.748 13.183-12.213-4.2-12.279-13.183-12.279m-71.735 23.911h10.729c7.367 0 10.985-3.167 10.985-11.632s-3.618-11.633-10.985-11.633h-10.729zM15.51 20.68h15.445c3.167 0 4.718-1.68 4.718-4.653s-1.551-4.589-4.718-4.589H15.51zM530.998.773c.959 0 1.482 1.118.868 1.855L521.423 15.16c-1.228 1.473-.181 3.711 1.738 3.711h10.101c.959 0 1.482 1.119.868 1.855L513.922 44.98a1.13 1.13 0 0 1-1.738 0l-20.209-24.252c-.614-.736-.09-1.855.869-1.855h10.098c1.917 0 2.967-2.238 1.739-3.711L494.237 2.628c-.614-.737-.09-1.855.868-1.855z"/><mask id="a" width="44" height="46" x="491" y="0" maskUnits="userSpaceOnUse" style="mask-type:alpha"><path fill="#000" d="M530.998.773c.959 0 1.482 1.118.868 1.855L521.423 15.16c-1.228 1.473-.181 3.711 1.738 3.711h10.101c.959 0 1.482 1.119.868 1.855L513.922 44.98a1.13 1.13 0 0 1-1.738 0l-20.209-24.252c-.614-.736-.09-1.855.869-1.855h10.098c1.917 0 2.967-2.238 1.739-3.711L494.237 2.628c-.614-.737-.09-1.855.868-1.855z"/></mask><g mask="url(#a)"><g filter="url(#b)"><ellipse cx="5.397" cy="23.582" fill="#08060e" rx="5.397" ry="23.582" transform="rotate(30.253 306.6 1011.438)scale(-1 1)"/></g><g filter="url(#c)"><ellipse cx="5.397" cy="23.582" fill="#08060e" rx="5.397" ry="23.582" transform="rotate(-149.747 275.94 -71.236)scale(1 -1)"/></g><g filter="url(#d)"><ellipse cx="492.383" cy="1.447" fill="#08060e" rx="3.719" ry="21.831" transform="rotate(-36.093 492.383 1.447)"/></g><g filter="url(#e)"><ellipse cx="498.127" cy="34.105" fill="#08060e" rx="3.719" ry="21.831" transform="rotate(-36.093 498.127 34.105)"/></g><g filter="url(#f)"><ellipse cx="3.719" cy="21.831" fill="#08060e" rx="3.719" ry="21.831" transform="rotate(36.093 296.294 836.434)scale(-1 1)"/></g><g filter="url(#g)"><ellipse cx="3.719" cy="21.831" fill="#08060e" rx="3.719" ry="21.831" transform="rotate(36.093 242.73 842.184)scale(-1 1)"/></g><g filter="url(#h)"><ellipse cx="3.719" cy="21.831" fill="#08060e" rx="3.719" ry="21.831" transform="rotate(36.093 294.57 831.145)scale(-1 1)"/></g><g filter="url(#i)"><ellipse cx="3.719" cy="21.831" fill="#08060e" rx="3.719" ry="21.831" transform="rotate(36.093 241.581 838.659)scale(-1 1)"/></g><g filter="url(#j)"><ellipse cx="494.507" cy="3.026" fill="#08060e" rx="5.397" ry="23.582" transform="rotate(-40.91 494.507 3.026)"/></g><g filter="url(#k)"><ellipse cx="498.179" cy="28.503" fill="#08060e" rx="5.397" ry="23.582" transform="rotate(-35.888 498.179 28.503)"/></g></g><path fill="#08060e" d="M481.842.002c-9.199 13.167-9.252 33.575 0 46.789h6.215c-9.25-13.214-9.197-33.622 0-46.789zm62.421 0h-6.215c9.199 13.167 9.252 33.575 0 46.789h6.215c9.25-13.214 9.196-33.622 0-46.789"/><defs><filter id="b" width="39.32" height="54.894" x="515.141" y="-26.517" color-interpolation-filters="sRGB" filterUnits="userSpaceOnUse"><feFlood flood-opacity="0" result="BackgroundImageFix"/><feBlend in="SourceGraphic" in2="BackgroundImageFix" result="shape"/><feGaussianBlur result="effect1_foregroundBlur_4031_15620" stdDeviation="3.447"/></filter><filter id="c" width="39.32" height="54.894" x="513.993" y="-3.54" color-interpolation-filters="sRGB" filterUnits="userSpaceOnUse"><feFlood flood-opacity="0" result="BackgroundImageFix"/><feBlend in="SourceGraphic" in2="BackgroundImageFix" result="shape"/><feGaussianBlur result="effect1_foregroundBlur_4031_15620" stdDeviation="3.447"/></filter><filter id="d" width="40.206" height="49.343" x="472.28" y="-23.225" color-interpolation-filters="sRGB" filterUnits="userSpaceOnUse"><feFlood flood-opacity="0" result="BackgroundImageFix"/><feBlend in="SourceGraphic" in2="BackgroundImageFix" result="shape"/><feGaussianBlur result="effect1_foregroundBlur_4031_15620" stdDeviation="3.447"/></filter><filter id="e" width="40.206" height="49.343" x="478.024" y="9.433" color-interpolation-filters="sRGB" filterUnits="userSpaceOnUse"><feFlood flood-opacity="0" result="BackgroundImageFix"/><feBlend in="SourceGraphic" in2="BackgroundImageFix" result="shape"/><feGaussianBlur result="effect1_foregroundBlur_4031_15620" stdDeviation="3.447"/></filter><filter id="f" width="40.206" height="49.343" x="513.641" y="-23.225" color-interpolation-filters="sRGB" filterUnits="userSpaceOnUse"><feFlood flood-opacity="0" result="BackgroundImageFix"/><feBlend in="SourceGraphic" in2="BackgroundImageFix" result="shape"/><feGaussianBlur result="effect1_foregroundBlur_4031_15620" stdDeviation="3.447"/></filter><filter id="g" width="40.206" height="49.343" x="506.747" y="9.433" color-interpolation-filters="sRGB" filterUnits="userSpaceOnUse"><feFlood flood-opacity="0" result="BackgroundImageFix"/><feBlend in="SourceGraphic" in2="BackgroundImageFix" result="shape"/><feGaussianBlur result="effect1_foregroundBlur_4031_15620" stdDeviation="3.447"/></filter><filter id="h" width="40.206" height="49.343" x="510.194" y="-23.225" color-interpolation-filters="sRGB" filterUnits="userSpaceOnUse"><feFlood flood-opacity="0" result="BackgroundImageFix"/><feBlend in="SourceGraphic" in2="BackgroundImageFix" result="shape"/><feGaussianBlur result="effect1_foregroundBlur_4031_15620" stdDeviation="3.447"/></filter><filter id="i" width="40.206" height="49.343" x="504.45" y="9.433" color-interpolation-filters="sRGB" filterUnits="userSpaceOnUse"><feFlood flood-opacity="0" result="BackgroundImageFix"/><feBlend in="SourceGraphic" in2="BackgroundImageFix" result="shape"/><feGaussianBlur result="effect1_foregroundBlur_4031_15620" stdDeviation="3.447"/></filter><filter id="j" width="45.741" height="50.132" x="471.636" y="-22.04" color-interpolation-filters="sRGB" filterUnits="userSpaceOnUse"><feFlood flood-opacity="0" result="BackgroundImageFix"/><feBlend in="SourceGraphic" in2="BackgroundImageFix" result="shape"/><feGaussianBlur result="effect1_foregroundBlur_4031_15620" stdDeviation="3.447"/></filter><filter id="k" width="42.792" height="52.524" x="476.782" y="2.241" color-interpolation-filters="sRGB" filterUnits="userSpaceOnUse"><feFlood flood-opacity="0" result="BackgroundImageFix"/><feBlend in="SourceGraphic" in2="BackgroundImageFix" result="shape"/><feGaussianBlur result="effect1_foregroundBlur_4031_15620" stdDeviation="3.447"/></filter></defs></svg>
